X:1
T:Wien, 87.87 D
T:Wien, 87.87 D
T:William Thomas Giffe, 1881
T:Public Domain Courtesy of the Cyber Hymnal™
C:William Thomas Giffe, 1881
Z:Public Domain
Z:Courtesy of the Cyber Hymnal™
%%score ( 1 2 ) ( 3 4 )
L:1/8
Q:1/4=115
M:9/8
K:A
V:1 treble 
V:2 treble 
V:3 bass 
V:4 bass 
V:1
 (EF)G | A3 A3 (AG)[EA] | [Ac]3 [EA]3 (GA)[E^A] | [GB]3 [Ac]3 ([GB][FA])[^DF] | E6 (EF)[EG] | %5
 [EA]3 [CA]3 (AG)[EA] | [Ac]3 [EA]3 (AG)[EA] | [FB]3 [DF]3 (EF)[DG] | [CA]6 (cB)[Ec] | %9
 [Ae]3 [Ec]3 (BA)[GB] | [Ac]3 [EA]3 (AB)[Ac] | [GB]3 [FA]3 [EG]2 [^DF] | E6 (cB)[Ec] | %13
 [Ae]3 [Ec]3 (BA)[GB] | [Ac]3 [EA]3 ([CA][DB])[Ec] | [Fd]3 [FB]3 [EA]2 [DG] | [CA]6 |] %17
V:2
 EFG | A3 A3 E2 x | x6 E2 x | x9 | E6 E2 x | x6 E2 x | x6 E2 x | x6 D2 x | x6 E2 x | x6 E2 x | %10
 x6 E2 x | x9 | E6 E2 x | x6 E2 x | x9 | x9 | x6 |] %17
V:3
 E,F,G, | A,3 A,3 (CB,)[A,C] | [A,E]3 [A,C]3 (B,C)[E,C] | [E,E]3 [A,,E]3 (EB,)[B,,A,] | %4
 [E,G,]6 (G,A,)[E,B,] | [A,,C]3 [A,,A,]3 (CB,)[A,,C] | [A,,E]3 [A,,C]3 (CB,)[A,,C] | %7
 [D,D]3 [D,A,]3 (G,A,)[E,B,] | [A,,A,]6 A,2 A, | [A,C]3 A,3 (DC)[E,E] | [A,E]3 [A,,C]3 (CD)[A,,E] | %11
 [B,,E]3 [B,,B,]3 [B,,B,]2 [B,,A,] | [E,G,]6 A,2 A, | [A,C]3 A,3 (DC)[E,E] | %14
 [A,E]3 [A,,C]3 [A,,A,]2 [A,,A,] | [D,A,]3 [D,D]3 [E,C]2 [E,B,] | [A,,A,]6 |] %17
V:4
 (E,F,)G, | A,3 A,3 A,2 x | x6 E,2 x | x6 B,,2 x | x6 E,2 x | x6 A,,2 x | x6 A,,2 x | x6 E,2 x | %8
 x6 A,2 A, | x3 A,3 E,2 x | x6 A,,2 x | x9 | x6 A,2 A, | x3 A,3 E,2 x | x9 | x9 | x6 |] %17

